X: 86
T:Newton Park
M:6/8
L:1/8
R:Jig
K:D
A|f2 a gec|def A2 F|GAB cde|fga e2 A|f2 a gec|!
def A2 F|Ggf ecA| d3 d2:||:e|fef def|e2 c AcA|!
Bcd cdB|ABG F2 A|Bcd efg|fga d2 c|Bgf ecA|d3 d2:||
% <A name="D1X087">
